X:215
T:Green Stockings. (p)1675.PLFD.215
M:6/4
L:1/4
Q:3/4=80
S:Playford, Dancing Master,5th Ed.,1675.
O:England
H:1675.
Z:Chris Partington.
K:D
A|d>efefd|c>BcdAB|A>GFGAF|E3D2:|
|:F|G2BBGE|F>GAAFD|G>ABGAF|E3D2:|
